!!!OTL: Gretlein
!!!ARE: Europa, Mitteleuropa, Deutschland
!!!SCT: A0053B
!!!YEM: Copyright 1995, estate of Helmut Schaffrath.
**kern
*ICvox
*Ivox
*M6/4
*k[f#]
*G:
{4g
=1
2dd
4dd
2cc
4b
=2
2g
4a
2g}
{4g
=3
2dd
4dd
2cc
4b
=4
4.a
8b
4cc
2b}
{4a
=5
2g
4g
2f#
4d
=6
2e
4f#
2g}
{4b
=7
2a
4a
4g
4f#
4e
=8
2.d}
{2.dd
=9
2dd
4dd
4cc
4b
4a
=10
[2.g
4g]
4r}
==
!!!AGN: Romanze, Ballade, Lied
!! Nach Boehme die vermutete volkstuemliche Form von A0053A.
!!!ONB: ESAC (Essen Associative Code) Database: ALTDEU
!!!AMT: compound duple
!!!AIN: vox
!!!EED: Helmut Schaffrath
!!!EEV: 1.0
*-
